src/assets/svgs/map-pin.svg

<!DOCTYPE svg PUBLIC "-//W3C//DTD SVG 1.1//EN" "http://www.w3.org/Graphics/SVG/1.1/DTD/svg11.dtd">
<!-- Uploaded to: SVG Repo, www.svgrepo.com, Transformed by: SVG Repo Mixer Tools -->
<svg width="64px" height="64px" viewBox="0 0 24 24" fill="none" xmlns="http://www.w3.org/2000/svg" stroke="#000" stroke-width="0.00024000000000000003">
<g id="SVGRepo_bgCarrier" stroke-width="0"/>
<g id="SVGRepo_tracerCarrier" stroke-linecap="round" stroke-linejoin="round"/>
<g id="SVGRepo_iconCarrier"> <path d="M11.3856 23.789C11.3856 23.789 11.3861 23.7894 12 23L12.6139 23.7894C12.2528 24.0702 11.7467 24.0699 11.3856 23.789Z" fill="#F51414"/> <path fill-rule="evenodd" clip-rule="evenodd" d="M12 6C9.79086 6 8 7.79086 8 10C8 12.2091 9.79086 14 12 14C14.2091 14 16 12.2091 16 10C16 7.79086 14.2091 6 12 6ZM10 10C10 8.89543 10.8954 8 12 8C13.1046 8 14 8.89543 14 10C14 11.1046 13.1046 12 12 12C10.8954 12 10 11.1046 10 10Z" fill="#F51414"/> <path fill-rule="evenodd" clip-rule="evenodd" d="M11.3856 23.789L12 23C12.6139 23.7894 12.615 23.7885 12.615 23.7885L12.6169 23.7871L12.6231 23.7822L12.645 23.765C12.6638 23.7501 12.6909 23.7287 12.7258 23.7008C12.7954 23.6451 12.8961 23.5637 13.0233 23.4587C13.2776 23.2488 13.6385 22.944 14.0706 22.5599C14.9334 21.793 16.0867 20.7041 17.2433 19.419C18.397 18.1371 19.5731 16.639 20.4653 15.0528C21.3524 13.4758 22 11.7393 22 10C22 7.34784 20.9464 4.8043 19.0711 2.92893C17.1957 1.05357 14.6522 0 12 0C9.34784 0 6.8043 1.05357 4.92893 2.92893C3.05357 4.8043 2 7.34784 2 10C2 11.7393 2.64762 13.4758 3.53467 15.0528C4.42693 16.639 5.60303 18.1371 6.75671 19.419C7.91329 20.7041 9.06662 21.793 9.92939 22.5599C10.3615 22.944 10.7224 23.2488 10.9767 23.4587C11.1039 23.5637 11.2046 23.6451 11.2742 23.7008C11.3091 23.7287 11.3362 23.7501 11.355 23.765L11.3769 23.7822L11.3831 23.7871L11.3856 23.789ZM6.34315 4.34315C7.84344 2.84285 9.87827 2 12 2C14.1217 2 16.1566 2.84285 17.6569 4.34315C19.1571 5.84344 20 7.87827 20 10C20 11.2607 19.5226 12.6492 18.7222 14.0722C17.9269 15.486 16.853 16.8629 15.7567 18.081C14.6633 19.2959 13.5666 20.332 12.7419 21.0651C12.4576 21.3178 12.2065 21.5337 12 21.7078C11.7935 21.5337 11.5424 21.3178 11.2581 21.0651C10.4334 20.332 9.33671 19.2959 8.24329 18.081C7.14697 16.8629 6.07307 15.486 5.27783 14.0722C4.47738 12.6492 4 11.2607 4 10C4 7.87827 4.84285 5.84344 6.34315 4.34315Z" fill="#F51414"/> </g>
</svg>

<svg xmlns="http://www.w3.org/2000/svg" width="64" height="64" fill="none" stroke="#000" stroke-width="0" viewBox="0 0 24 24"><g fill="#F51414" stroke="none"><path d="M11.386 23.789 12 23l.614.79a1 1 0 0 1-1.228-.001Z"/><path fill-rule="evenodd" d="M12 6a4 4 0 1 0 0 8 4 4 0 0 0 0-8Zm-2 4a2 2 0 1 1 4 0 2 2 0 0 1-4 0Z" clip-rule="evenodd"/><path fill-rule="evenodd" d="M11.386 23.789 12 23c.614.79.615.788.615.788h.002l.006-.006.022-.017.08-.064a38.012 38.012 0 0 0 1.345-1.14 40.77 40.77 0 0 0 3.173-3.142c1.154-1.282 2.33-2.78 3.222-4.366C21.352 13.476 22 11.739 22 10a10 10 0 0 0-20 0c0 1.74.648 3.476 1.535 5.053.892 1.586 2.068 3.084 3.222 4.366a40.773 40.773 0 0 0 4.517 4.282l.081.064.022.017.006.005.003.002ZM6.343 4.343A8 8 0 0 1 20 10c0 1.26-.477 2.65-1.278 4.072-.795 1.414-1.869 2.79-2.965 4.009A38.787 38.787 0 0 1 12 21.708a38.79 38.79 0 0 1-3.757-3.627c-1.096-1.218-2.17-2.595-2.965-4.009C4.478 12.65 4 11.261 4 10a8 8 0 0 1 2.343-5.657Z" clip-rule="evenodd"/></g></svg>
